X: 11
T: Lilting Banshee, The
Z: Kai Shade
S: https://thesession.org/tunes/60#setting50880
R: jig
M: 6/8
L: 1/8
K: Ador
|:EAA EAA|BAB G2A|Bee edB|dBA GED|
EAA EAA|BAB G2A|Bee edB|dBA [1 A2G:||2 AB/c/d||
eaa age|dBA G2A|Bee edB|def gfg|
eaa age|dBA G2A|Bee edB|dBA AB/c/d|
eaa age|dBA G2A|Bee edB|dBA GED|
EAA EAA|BAB G2A|Bee edB|dBA A2G||

